!!!!SEGMENT: pl-wnifc--13846--117_anonim--piesni-polskie-i-ruskie-ludu-galicyjskiego-117-ty-diwczyno-iz-podola.krn
!!!cenid: 18xx:3339
!!!COM: Anonim
!!!COM-rismID: pe30004985
!!!CDT:
!!!CNT:
!!!GTL: Pieśni polskie i ruskie ludu galicyjskiego
!!!OTL: 117. Ty diwczyno iz Podola
!!!OMV: 117
!!!PDT: 1833
!!!AGN:
!!!SMS-siglum: PL-Wnifc
!!!SMS-shelfmark: 13846
!!!SMS-shelfwork: 001-117 G
!!!NIFC-rismSourceID: 1001036701
!!!NIFC-rismChildID: 1001039615
!!!NIFC-islandoraID: nifc:210326
!!!URL-pdf-islandora: https://repozytorium.nifc.pl/islandora/object/nifc%3A210326/datastream/PDF/view
!!!URL-scan:
!!!ONB-nifc:
!!!OMD: Andante
!!!AIN: 1 piano 1 soprn
!!!key: G
**kern	**kern	**kern	**text
*group2	*group2	*group1	*
*part2	*part2	*part1	*part1
*staff3	*staff2	*staff1	*staff1
*I"[Piano]	*I"[Piano]	*I"[Soprano]	*
*Ipiano	*Ipiano	*Isoprn	*
*ICklav	*ICklav	*ICvox	*
*IGacmp	*IGacmp	*IGsolo	*
*clefF4	*clefG2	*clefG2	*
*k[f#]	*k[f#]	*k[f#]	*
*G:	*G:	*G:	*
*M4/4	*M4/4	*M4/4	*
*met(c)	*met(c)	*met(c)	*
!	!LO:TX:b:t=|:problem	!LO:TX:b:B:rj:t=E.166.	!
4r	8g/L	8g/	Ty
!	!LO:TX:b:t=|:problem	!	!
.	8b/J	8b/	diw-
=1	=1	=1	=1
*^	*	*	*
4r	1GG	4b\ 4dd\	4dd\	-czy-
4G/	.	4b\ 4dd\	4dd\	-no
4G/	.	(>\8bL 8dd\	(>8dd\L	iz
.	.	8g\ 8b\	8b\	.
4G/	.	8a\) 8cc\	8cc\J)	.
!	!	!LO:TX:a:t=|:problem	!LO:TX:a:t=|:problem	!
.	.	8b\J 8dd\	8dd\	Po-
=2	=2	=2	=2	=2
4G/	4C\ 4G\	(>8.cc\L 8.ee\	(8.ee\L	-do-
.	.	16b\Jk) 16dd\	16ddJk)	.
4G/	4GG\ 4G\	4b\ 4dd\	4dd	-la,
!LO:TX:t=P:4/left:problem	!	!	!	!
4G/	4GG\ 4G\	4r	4r	.
4r	4ryy	8e\L 8cc\	8cc\	w two-
.	.	8g\J 8dd\	8dd\	-jich
*v	*v	*	*	*
!!LO:LB:g=original
=3	=3	=3	=3
8CC/L 8C/	4cc\ 4ee\	4ee\	ru-
8EE/ 8E/	.	.	.
8GG/ 8G/	4cc\ 4ee\	4ee\	-kach
8C/J 8c/	.	.	.
4.CC/ 4.E/	(>\8ccL 8ee\	(>8ee\L	mo-
.	8ee\ 8gg\	8gg\	.
.	8dd\) 8ff#X\	8ff#\J)	.
8C/	8cc\J 8ee\	8ee\	-ja
=4	=4	=4	=4
!	!	!LO:TX:t=P:problem=niewidoczna zmiana metrum na 3/4	!
4GG/	8.cc\L 8.ee\	(>8.ee\L	do-
.	16b\Jk 16dd\	16dd\Jk)	.
4G\	4b\ 4dd\	4dd\	-la
4r	4r	4r	.
=!|:	=!|:	=!|:	=!|:
*^	*	*	*
!	!	!	!LO:TX:a:t=P:problem=niewidoczna zmiana metrum  na 2/8	!
4F#/	4D\	(>8dd\L	8dd\	ty
.	.	8cc\J)	8cc\	wła-
!!LO:LB:g=original
=5	=5	=5	=5	=5
!	!	!	!LO:TX:t=P:problem=niewidoczna zmiana na pierwotne metrum 4/4	!
4B/	4G\	(>\8bL	(>\8bL	-da-
.	.	8g\ 8gg\	8gg\J	.
4A 4c/	4A\	8f#\) 8ff#\	8ff#\)	.
!	!	!LO:TX:a:t=|:problem	!	!
.	.	8e\J 8ee\	8ee\	-jesz
*	*2\right	*	*	*
2BB/ 2F#/ 2A/	2BB\	(</8eL 8ee/	8ee\	ser-
.	.	8d#X/J) 8dd#X/	8dd#X\	-ciom
.	.	8.d#/L 8.dd#/	(>\8.dd#L	mo-
.	.	16e/Jk 16ee/	16ee\Jk)	.
=6	=6	=6	=6	=6
*	*2\left	*	*	*
4G/	2C\ 2E\	2e/ 2ee/	2ee\	-jim,
4G#X/	.	.	.	.
4A/	2ryy	4r	4r	.
4r	.	(>8cc\L	8cc\	ja
.	.	8b\J)	8b\	ne
!!LO:LB:g=original
=7	=7	=7	=7	=7
2c/	2D\ 2F#\	(>\8aL	(<8a/L	mo-
.	.	8cc\	8cc/	.
.	.	8ee\)	8ee/J)	.
!	!	!LO:TX:a:t=|:problem	!	!
.	.	8dd\J	8dd\	-hu
!	!	!LO:TX:a:t=|:problem	!	!
4A/	4D\ 4A\	8dd\L	(</8ddL	bu-
!	!	!LO:TX:a:t=|:problem	!	!
.	.	8f#\	8f#/J)	-ty
4F#/ 4c/	4D\ 4F#\	(>\8.a	(</8.aL	two-
.	.	16g\Jk)	16g/Jk)	.
=8	=8	=8	=8	=8
!	!	!	!LO:TX:a:t=P:problem=niewidoczna zmiana metrum na 3/4	!
2B/	2G\ 2B\	2g/	2g/	-jim.
4r	4ryy	4r	4r	.
*v	*v	*	*	*
==	==	==	==
*-	*-	*-	*-
!!!system-decoration: g1,[{g2}]
!!!RDF**kern: > = above
!!!RDF**kern: < = below
!!!ENC: Jędrzej Mróz
!!!END: 2021-11-12
!!!YEC: Copyright 2022 Narodowy Instytut Fryderyka Chopina (https://polishscores.org)
!!!YEM: License CC-BY-4.0 (https://creativecommons.org/licenses/by/4.0)
